src/codepen.svg

<svg xmlns="http://www.w3.org/2000/svg" width="24" height="24" viewBox="0 0 24 24"><path d="M19.45 13.29L17.5 12l1.95-1.29m-6.68 8.07v-3.61l3.36-2.24 2.7 1.81M12 13.83L9.26 12 12 10.17 14.74 12m-3.51 6.78l-6.06-4.04 2.7-1.81 3.36 2.24m-6.68-4.46L6.5 12l-1.95 1.29m6.68-8.07v3.61l-3.36 2.24-2.7-1.81m7.6-4.04l6.06 4.04-2.7 1.81-3.36-2.24m8.23.33v-.04c0-.02 0-.04-.03-.06 0-.01 0-.03-.01-.06 0 0-.01 0-.02-.04 0-.01-.01-.02-.02-.03 0-.02-.01-.04-.02-.05-.01-.02-.02-.03-.02-.04-.01-.02-.03-.03-.04-.05-.01-.01-.01-.02-.02-.03a.04.04 0 0 0-.04-.04l-.03-.03a.176.176 0 0 0-.05-.04l-.03-.03c-.01 0-.01 0-.01-.01l-8.23-5.48a.789.789 0 0 0-.86 0L3.34 8.61c0 .01 0 .01-.01.01l-.03.03c-.02.01-.03.02-.05.04l-.03.03-.04.04c-.01.01-.01.02-.02.03-.01.02-.03.03-.04.05 0 .01-.01.02-.02.04-.01.01-.02.03-.02.05-.01.01-.02.02-.02.03-.01.04-.01.04-.02.04-.01.03-.01.05-.01.06C3 9.08 3 9.1 3 9.12v5.76c0 .02 0 .04.03.06 0 .01 0 .03.01.06.01 0 .01 0 .02.04 0 .01.01.02.02.03 0 .02.01.04.02.05.01.02.02.03.02.04.01.02.03.03.04.05.01.01.01.02.02.03.02.01.03.03.04.04l.03.03c.02.02.03.03.05.04l.03.03c.01 0 .01 0 .01.01l8.23 5.48c.13.09.28.13.43.13.15 0 .3-.04.43-.13l8.23-5.48c0-.01 0-.01.01-.01l.03-.03c.02-.01.03-.02.05-.04l.03-.03c.01-.01.02-.03.04-.04.01-.01.01-.02.02-.03.01-.02.03-.03.04-.05 0-.01.01-.02.02-.04.01-.01.02-.03.02-.05.01-.01.02-.02.02-.03.01-.04.02-.04.02-.04.01-.03.01-.05.01-.06.03-.02.03-.04.03-.06v-.04-5.58-.1z" fill="#e3e3e3"/></svg>

<?xml version="1.0" encoding="UTF-8"?><!DOCTYPE svg PUBLIC "-//W3C//DTD SVG 1.1//EN" "http://www.w3.org/Graphics/SVG/1.1/DTD/svg11.dtd"><svg xmlns="http://www.w3.org/2000/svg" xmlns:xlink="http://www.w3.org/1999/xlink" version="1.1" width="24" height="24" viewBox="0 0 24 24"><path d="M19.45,13.29L17.5,12L19.45,10.71M12.77,18.78V15.17L16.13,12.93L18.83,14.74M12,13.83L9.26,12L12,10.17L14.74,12M11.23,18.78L5.17,14.74L7.87,12.93L11.23,15.17M4.55,10.71L6.5,12L4.55,13.29M11.23,5.22V8.83L7.87,11.07L5.17,9.26M12.77,5.22L18.83,9.26L16.13,11.07L12.77,8.83M21,9.16C21,9.15 21,9.13 21,9.12C21,9.1 21,9.08 20.97,9.06C20.97,9.05 20.97,9.03 20.96,9C20.96,9 20.95,9 20.94,8.96C20.94,8.95 20.93,8.94 20.92,8.93C20.92,8.91 20.91,8.89 20.9,8.88C20.89,8.86 20.88,8.85 20.88,8.84C20.87,8.82 20.85,8.81 20.84,8.79C20.83,8.78 20.83,8.77 20.82,8.76A0.04,0.04 0 0,0 20.78,8.72C20.77,8.71 20.76,8.7 20.75,8.69C20.73,8.67 20.72,8.66 20.7,8.65C20.69,8.64 20.68,8.63 20.67,8.62C20.66,8.62 20.66,8.62 20.66,8.61L12.43,3.13C12.17,2.96 11.83,2.96 11.57,3.13L3.34,8.61C3.34,8.62 3.34,8.62 3.33,8.62C3.32,8.63 3.31,8.64 3.3,8.65C3.28,8.66 3.27,8.67 3.25,8.69C3.24,8.7 3.23,8.71 3.22,8.72C3.21,8.73 3.2,8.74 3.18,8.76C3.17,8.77 3.17,8.78 3.16,8.79C3.15,8.81 3.13,8.82 3.12,8.84C3.12,8.85 3.11,8.86 3.1,8.88C3.09,8.89 3.08,8.91 3.08,8.93C3.07,8.94 3.06,8.95 3.06,8.96C3.05,9 3.05,9 3.04,9C3.03,9.03 3.03,9.05 3.03,9.06C3,9.08 3,9.1 3,9.12C3,9.13 3,9.15 3,9.16C3,9.19 3,9.22 3,9.26V14.74C3,14.78 3,14.81 3,14.84C3,14.85 3,14.87 3,14.88C3,14.9 3,14.92 3.03,14.94C3.03,14.95 3.03,14.97 3.04,15C3.05,15 3.05,15 3.06,15.04C3.06,15.05 3.07,15.06 3.08,15.07C3.08,15.09 3.09,15.11 3.1,15.12C3.11,15.14 3.12,15.15 3.12,15.16C3.13,15.18 3.15,15.19 3.16,15.21C3.17,15.22 3.17,15.23 3.18,15.24C3.2,15.25 3.21,15.27 3.22,15.28C3.23,15.29 3.24,15.3 3.25,15.31C3.27,15.33 3.28,15.34 3.3,15.35C3.31,15.36 3.32,15.37 3.33,15.38C3.34,15.38 3.34,15.38 3.34,15.39L11.57,20.87C11.7,20.96 11.85,21 12,21C12.15,21 12.3,20.96 12.43,20.87L20.66,15.39C20.66,15.38 20.66,15.38 20.67,15.38C20.68,15.37 20.69,15.36 20.7,15.35C20.72,15.34 20.73,15.33 20.75,15.31C20.76,15.3 20.77,15.29 20.78,15.28C20.79,15.27 20.8,15.25 20.82,15.24C20.83,15.23 20.83,15.22 20.84,15.21C20.85,15.19 20.87,15.18 20.88,15.16C20.88,15.15 20.89,15.14 20.9,15.12C20.91,15.11 20.92,15.09 20.92,15.07C20.93,15.06 20.94,15.05 20.94,15.04C20.95,15 20.96,15 20.96,15C20.97,14.97 20.97,14.95 20.97,14.94C21,14.92 21,14.9 21,14.88C21,14.87 21,14.85 21,14.84C21,14.81 21,14.78 21,14.74V9.26C21,9.22 21,9.19 21,9.16Z" fill="#e3e3e3"  /></svg>
